X: 1
T: the Silver Spear
S: From the Roaring Jelly collection
Z: 2010 John Chambers <jc:trillian.mit.edu>
R: reel
M: C
K: D
|:\
"D"FA~A2 BA~A2 | dfed "G"BcdA |\
"D"FA~A2 BA~A2 | dfed "G"B2AG |
"D"FA~A2 BA~A2 | dfed "G"Bdef |\
g3e "D"f3e | "A"dfed B2A2 :|
|:\
"D"fa~a2 bfaf | "G"gfed "A"Bcde |\
"D"fa~a2 bfaf | "G"gfed "A"B2A2 |
"D"fa~a2 bfaf | "G"gfed "A"Bdef |\
"G"g3e "D"f3e | "A"dfed B2A2 :|
